packages/foundations/assets/icons/functional/images/layout/resize_handle_corner.svg

<svg xmlns="http://www.w3.org/2000/svg" width="32" height="32" fill="none"><path fill="#1A1C1F" fill-rule="evenodd" d="M25.6 5.097C25.361 5.2 5.265 25.273 5.116 25.558c-.188.361-.095.907.2 1.173.271.245.723.318 1.072.174.277-.114 20.353-20.173 20.496-20.478.127-.27.128-.581.002-.854-.116-.253-.235-.367-.5-.478a1.04 1.04 0 0 0-.786.002m.172 9.942a1.4 1.4 0 0 0-.373.18c-.109.076-2.448 2.389-5.196 5.14-5.181 5.184-5.214 5.22-5.214 5.641 0 .346.323.805.654.93.215.081.542.07.772-.026.139-.057 1.692-1.575 5.226-5.106 2.766-2.764 5.09-5.113 5.165-5.221.254-.365.236-.876-.043-1.194-.268-.305-.627-.43-.991-.344"/></svg>

<svg width="32" height="32" viewBox="0 0 32 32" fill="none" xmlns="http://www.w3.org/2000/svg"><path d="M25.600 5.097 C 25.361 5.200,5.265 25.273,5.116 25.558 C 4.928 25.919,5.021 26.465,5.316 26.731 C 5.587 26.976,6.039 27.049,6.388 26.905 C 6.665 26.791,26.741 6.732,26.884 6.427 C 27.011 6.157,27.012 5.846,26.886 5.573 C 26.770 5.320,26.651 5.206,26.386 5.095 C 26.141 4.993,25.843 4.994,25.600 5.097 M25.772 15.039 C 25.676 15.062,25.508 15.143,25.399 15.219 C 25.290 15.295,22.951 17.608,20.203 20.359 C 15.022 25.543,14.989 25.579,14.989 26.000 C 14.989 26.346,15.312 26.805,15.643 26.930 C 15.858 27.011,16.185 27.000,16.415 26.904 C 16.554 26.847,18.107 25.329,21.641 21.798 C 24.407 19.034,26.731 16.685,26.806 16.577 C 27.060 16.212,27.042 15.701,26.763 15.383 C 26.495 15.078,26.136 14.953,25.772 15.039 " fill="#1A1C1F" stroke="none" fill-rule="evenodd"></path></svg>
